src/assets/svg/icons/fa/nuevos/classic/thin/car-building classic thin.svg

<svg xmlns="http://www.w3.org/2000/svg" viewBox="0 0 640 512"><!--! Font Awesome Pro 6.4.0 by @fontawesome - https://fontawesome.com License - https://fontawesome.com/license (Commercial License) Copyright 2023 Fonticons, Inc. --><path d="M272 16H48C30.3 16 16 30.3 16 48V432c0 17.7 14.3 32 32 32H224v16H48c-26.5 0-48-21.5-48-48V48C0 21.5 21.5 0 48 0H272c26.5 0 48 21.5 48 48V165.2c-5.9 4.8-11.3 10.3-16 16.4V48c0-17.7-14.3-32-32-32zM232 288c7.2 0 13.7 3.2 18.1 8.2c-3.8 4.5-7.2 9.3-10.2 14.3c-.7-3.7-4-6.5-7.9-6.5H200c-4.4 0-8 3.6-8 8v32c0 4.4 3.6 8 8 8h25.1c-.7 5.2-1.1 10.6-1.1 16H200c-13.3 0-24-10.7-24-24V312c0-13.3 10.7-24 24-24h32zM64 200c0-13.3 10.7-24 24-24h32c13.3 0 24 10.7 24 24v32c0 13.3-10.7 24-24 24H88c-13.3 0-24-10.7-24-24V200zm24-8c-4.4 0-8 3.6-8 8v32c0 4.4 3.6 8 8 8h32c4.4 0 8-3.6 8-8V200c0-4.4-3.6-8-8-8H88zm112-16h32c13.3 0 24 10.7 24 24v32c0 13.3-10.7 24-24 24H200c-13.3 0-24-10.7-24-24V200c0-13.3 10.7-24 24-24zm-8 24v32c0 4.4 3.6 8 8 8h32c4.4 0 8-3.6 8-8V200c0-4.4-3.6-8-8-8H200c-4.4 0-8 3.6-8 8zM64 88c0-13.3 10.7-24 24-24h32c13.3 0 24 10.7 24 24v32c0 13.3-10.7 24-24 24H88c-13.3 0-24-10.7-24-24V88zm24-8c-4.4 0-8 3.6-8 8v32c0 4.4 3.6 8 8 8h32c4.4 0 8-3.6 8-8V88c0-4.4-3.6-8-8-8H88zM200 64h32c13.3 0 24 10.7 24 24v32c0 13.3-10.7 24-24 24H200c-13.3 0-24-10.7-24-24V88c0-13.3 10.7-24 24-24zm-8 24v32c0 4.4 3.6 8 8 8h32c4.4 0 8-3.6 8-8V88c0-4.4-3.6-8-8-8H200c-4.4 0-8 3.6-8 8zM64 312c0-13.3 10.7-24 24-24h32c13.3 0 24 10.7 24 24v32c0 13.3-10.7 24-24 24H88c-13.3 0-24-10.7-24-24V312zm24-8c-4.4 0-8 3.6-8 8v32c0 4.4 3.6 8 8 8h32c4.4 0 8-3.6 8-8V312c0-4.4-3.6-8-8-8H88zM380.2 192c-17.9 0-33.6 11.8-38.5 29l-19.5 68.2c4.5-.8 9-1.2 13.7-1.2H560c4.7 0 9.3 .4 13.7 1.2L554.3 221c-4.9-17.2-20.6-29-38.5-29H380.2zM304.3 293.8l22.1-77.2c6.9-24 28.8-40.6 53.8-40.6H515.8c25 0 47 16.6 53.8 40.6l22.1 77.2-1 .3c29 12 49.3 40.6 49.3 73.9v64 16 32c0 17.7-14.3 32-32 32H592c-17.7 0-32-14.3-32-32V448H336v32c0 17.7-14.3 32-32 32H288c-17.7 0-32-14.3-32-32V448 432 368c0-33.3 20.4-61.9 49.3-73.9l-1-.3zM576 432h48V368c0-35.3-28.7-64-64-64H336c-35.3 0-64 28.7-64 64v64h48 16H560h16zm16 64h16c8.8 0 16-7.2 16-16V448H576v32c0 8.8 7.2 16 16 16zM320 448H272v32c0 8.8 7.2 16 16 16h16c8.8 0 16-7.2 16-16V448zm0-80a16 16 0 1 0 32 0 16 16 0 1 0 -32 0zm16 32a32 32 0 1 1 0-64 32 32 0 1 1 0 64zm224-48a16 16 0 1 0 0 32 16 16 0 1 0 0-32zm32 16a32 32 0 1 1 -64 0 32 32 0 1 1 64 0z"/></svg>

<svg xmlns="http://www.w3.org/2000/svg" viewBox="0 0 640 512"><path d="M272 16H48C30.33 16 16 30.33 16 48V432C16 449.7 30.33 464 48 464H224V480H48C21.49 480 0 458.5 0 432V48C0 21.49 21.49 0 48 0H272C298.5 0 320 21.49 320 48V165.2C314.1 170 308.7 175.5 304 181.6V48C304 30.33 289.7 16 272 16zM232 288C239.2 288 245.7 291.2 250.1 296.2C246.3 300.7 242.9 305.5 239.9 310.5C239.2 306.8 235.9 304 232 304H200C195.6 304 192 307.6 192 312V344C192 348.4 195.6 352 200 352H225.1C224.4 357.2 224 362.6 224 368H200C186.7 368 176 357.3 176 344V312C176 298.7 186.7 288 200 288H232zM64 200C64 186.7 74.75 176 88 176H120C133.3 176 144 186.7 144 200V232C144 245.3 133.3 256 120 256H88C74.75 256 64 245.3 64 232V200zM88 192C83.58 192 80 195.6 80 200V232C80 236.4 83.58 240 88 240H120C124.4 240 128 236.4 128 232V200C128 195.6 124.4 192 120 192H88zM232 176C245.3 176 256 186.7 256 200V232C256 245.3 245.3 256 232 256H200C186.7 256 176 245.3 176 232V200C176 186.7 186.7 176 200 176H232zM192 232C192 236.4 195.6 240 200 240H232C236.4 240 240 236.4 240 232V200C240 195.6 236.4 192 232 192H200C195.6 192 192 195.6 192 200V232zM64 88C64 74.75 74.75 64 88 64H120C133.3 64 144 74.75 144 88V120C144 133.3 133.3 144 120 144H88C74.75 144 64 133.3 64 120V88zM88 80C83.58 80 80 83.58 80 88V120C80 124.4 83.58 128 88 128H120C124.4 128 128 124.4 128 120V88C128 83.58 124.4 80 120 80H88zM232 64C245.3 64 256 74.75 256 88V120C256 133.3 245.3 144 232 144H200C186.7 144 176 133.3 176 120V88C176 74.75 186.7 64 200 64H232zM192 120C192 124.4 195.6 128 200 128H232C236.4 128 240 124.4 240 120V88C240 83.58 236.4 80 232 80H200C195.6 80 192 83.58 192 88V120zM64 312C64 298.7 74.75 288 88 288H120C133.3 288 144 298.7 144 312V344C144 357.3 133.3 368 120 368H88C74.75 368 64 357.3 64 344V312zM88 304C83.58 304 80 307.6 80 312V344C80 348.4 83.58 352 88 352H120C124.4 352 128 348.4 128 344V312C128 307.6 124.4 304 120 304H88zM368 368C368 385.7 353.7 400 336 400C318.3 400 304 385.7 304 368C304 350.3 318.3 336 336 336C353.7 336 368 350.3 368 368zM336 384C344.8 384 352 376.8 352 368C352 359.2 344.8 352 336 352C327.2 352 320 359.2 320 368C320 376.8 327.2 384 336 384zM528 368C528 350.3 542.3 336 560 336C577.7 336 592 350.3 592 368C592 385.7 577.7 400 560 400C542.3 400 528 385.7 528 368zM560 352C551.2 352 544 359.2 544 368C544 376.8 551.2 384 560 384C568.8 384 576 376.8 576 368C576 359.2 568.8 352 560 352zM326.4 216.6C333.2 192.6 355.2 176 380.2 176H515.8C540.8 176 562.8 192.6 569.6 216.6L591.7 293.8L590.7 294.1C619.6 306.1 640 334.7 640 368V504C640 508.4 636.4 512 632 512C627.6 512 624 508.4 624 504V448H272V504C272 508.4 268.4 512 264 512C259.6 512 256 508.4 256 504V368C256 334.7 276.4 306.1 305.3 294.1L304.3 293.8L326.4 216.6zM380.2 192C362.3 192 346.7 203.8 341.7 221L322.3 289.2C326.7 288.4 331.3 288 336 288H560C564.7 288 569.3 288.4 573.7 289.2L554.3 221C549.3 203.8 533.7 192 515.8 192H380.2zM624 368C624 332.7 595.3 304 560 304H336C300.7 304 272 332.7 272 368V432H624V368z"/></svg>
